X: 39835
T: Thinktank
R: reel
M: 4/4
K: Adorian
|:A2AB c2dc|Bc~c2 A2d2|c2BA GAAG|
A2AB c2dc|Bc~c2 A2d2|c2BA GAAG:|
|:A2d2 c2BA|GAAG A2d2|c2Ae- eA f2|
A2d2 c2BA|GAAG A2g2|~f2ed cd d2:|

